src/assets/selectIcons/armatura_4.svg

<svg xmlns="http://www.w3.org/2000/svg" viewBox="0 0 512 512"><path d="M0 0h512v512H0z"/><path fill="#fff" d="M156.7 25.83L89 39.38c-.1 58.57-1.74 119.32-43.49 167.22C104.4 246.5 189 260.7 247 248.8v-99L108.3 88.22l7.4-16.44L256 134.2l140.3-62.42 7.4 16.44L265 149.8v99c58 11.9 142.6-2.3 201.5-42.2-41.8-47.9-43.4-108.65-43.5-167.22l-67.7-13.55c-12.9 13.88-20.6 28.15-32.9 40.53C308.9 79.78 289.5 89 256 89c-33.5 0-52.9-9.22-66.4-22.64-12.3-12.38-20-26.65-32.9-40.53zM53.88 232.9C75.96 281 96.07 336.6 102.7 392.8l65 22.8c4.2-52.7 28.2-104 63.7-146.1-55.1 6.3-122.7-5.8-177.52-36.6zm404.22 0c-54.8 30.8-122.4 42.9-177.5 36.6 35.5 42.1 59.5 93.4 63.7 146.1l65.2-22.9c6.6-56.8 26.6-111.8 48.6-159.8zM256 269c-40.5 43.1-67.7 97.9-70.7 152.7l61.7 21.6V336h18v107.3l61.7-21.6c-3.1-54.8-30.2-109.6-70.7-152.7zm151.7 143.4L297 451.1v18.8l110.2-44.1c.1-4.5.3-8.9.5-13.4zm-303.3.1c.3 4.5.4 8.9.5 13.4l110.1 44v-18.7l-110.6-38.7zM279 457.4l-23 8.1-23-8v19.6l23 9.2 23-9.2v-19.7z"/></svg>

<?xml version="1.0" encoding="UTF-8" standalone="no"?>
<!DOCTYPE svg PUBLIC "-//W3C//DTD SVG 1.1//EN" "http://www.w3.org/Graphics/SVG/1.1/DTD/svg11.dtd">
<svg width="100%" height="100%" viewBox="0 0 512 512" version="1.1" xmlns="http://www.w3.org/2000/svg" xmlns:xlink="http://www.w3.org/1999/xlink" xml:space="preserve" xmlns:serif="http://www.serif.com/" style="fill-rule:evenodd;clip-rule:evenodd;stroke-linejoin:round;stroke-miterlimit:2;">
    <rect x="0" y="0" width="512" height="512" style="fill-rule:nonzero;"/>
    <path d="M156.7,25.83L89,39.38C88.9,97.95 87.26,158.7 45.51,206.6C104.4,246.5 189,260.7 247,248.8L247,149.8L108.3,88.22L115.7,71.78L256,134.2L396.3,71.78L403.7,88.22L265,149.8L265,248.8C323,260.7 407.6,246.5 466.5,206.6C424.7,158.7 423.1,97.95 423,39.38L355.3,25.83C342.4,39.71 334.7,53.98 322.4,66.36C308.9,79.78 289.5,89 256,89C222.5,89 203.1,79.78 189.6,66.36C177.3,53.98 169.6,39.71 156.7,25.83ZM53.88,232.9C75.96,281 96.07,336.6 102.7,392.8L167.7,415.6C171.9,362.9 195.9,311.6 231.4,269.5C176.3,275.8 108.7,263.7 53.88,232.9ZM458.1,232.9C403.3,263.7 335.7,275.8 280.6,269.5C316.1,311.6 340.1,362.9 344.3,415.6L409.5,392.7C416.1,335.9 436.1,280.9 458.1,232.9ZM256,269C215.5,312.1 188.3,366.9 185.3,421.7L247,443.3L247,336L265,336L265,443.3L326.7,421.7C323.6,366.9 296.5,312.1 256,269ZM407.7,412.4L297,451.1L297,469.9L407.2,425.8C407.3,421.3 407.5,416.9 407.7,412.4ZM104.4,412.5C104.7,417 104.8,421.4 104.9,425.9L215,469.9L215,451.2L104.4,412.5ZM279,457.4L256,465.5L233,457.5L233,477.1L256,486.3L279,477.1L279,457.4Z" style="fill:rgb(155,122,97);fill-rule:nonzero;"/>
</svg>
